X: 1
T:The Tenpenny Bit  "also known as The Three Sailors or The Three Little
M:6/8
L:1/8
Q:80
C:Traditional Irish
S:Jig
K:HP
|: gf|
{g}e2{GAG}A{g}e2{GAG}A|
{g}B3/2A/2B{g}G3/2Bd|  !
{g}e2{GAG}A{g}e2{GAG}A|
{g}e3/2f/2g{a}f3/2e/2d|
{g}e2{GAG}A{g}e2{GAG}A|  !
{g}B3/2A/2B{g}G3/2Bd|
{g}d3/2e/2f{a}g3/2d/2B|
{g}e2{GAG}A{g}A2:| |:  !
e|
{g}ea{g}a{g}ea{g}a|
eg{f}geg{f}g|
{g}ea{g}a{g}ea{g}a|  !
g3/2e/2{g}dg3/2e/2{g}d|
{g}ea{g}a{g}ea{g}a|
eg{f}geg{f}g|  !
{g}d3/2e/2f{a}g3/2d/2B|
{g}e2{GAG}A{g}A2:|
